X:1
T:[ID 2-52a]
T:[ID 2-52a]
T:Bezeichnung standardisiert: Menuett Menuet 11
T:Urheber unbekannt Datum in der hier transkribierten schriftlichen Quelle: 1767
C:Urheber unbekannt
C:Datum in der hier transkribierten schriftlichen Quelle: 1767
L:1/8
M:3/4
K:D
V:1 bass 
V:1
 D,2 F,2 A,2 | D2 A,2 F,2 | D,2 F,2 A,2 | D2 B,2 G,2 | F,2 D,2 E,D, | C,2 A,,2 D,2 | ^G,2 A,2 E,2 | %7
 A,2 E,2 A,,2 :: A,2 C2 E2 | F2 DF E2 | A,2 C2 E2 | E2 CE D2 |"^O)" D,2 F,2 G,2 | F,2 E,2 D,2 | %14
"^O)" D,2 F,2 G,2 | F,2 E,2 D,2 | G,2 A,2 A,,2 | D,2 A,,2 D,,2 :| %18

